star-box-multiple-outline.svg

<svg fill="currentColor" viewBox="0 0 24 24"><path d="M4 6v14h14v2H3c-.6 0-1-.4-1-1V6zm8.1 4.6-1.9-1.8 2.6-.4L14 6l1.2 2.4 2.6.4-1.9 1.9.4 2.6L14 12l-2.4 1.2zM8 2h12a2 2 0 0 1 2 2v12c0 1.11-.89 2-2 2H8a2 2 0 0 1-2-2V4c0-1.1.9-2 2-2m0 2v12h12V4z"/></svg>

<svg  viewBox="0 0 24 24" fill="currentColor"><path  d="M4 6V20H18V22H3C2.4 22 2 21.6 2 21V6H4M12.1 10.6L10.2 8.8L12.8 8.4L14 6L15.2 8.4L17.8 8.8L15.9 10.7L16.3 13.3L14 12L11.6 13.2L12.1 10.6M8 2H20C21.11 2 22 2.9 22 4V16C22 17.11 21.11 18 20 18H8C6.9 18 6 17.11 6 16V4C6 2.9 6.9 2 8 2M8 4V16H20V4H8Z"/></svg>
